assets/images/icons/reviews-icon.svg

<svg width="40" height="40" viewBox="0 0 40 40" fill="none" xmlns="http://www.w3.org/2000/svg">
<g clip-path="url(#clip0_211_4163)">
<path opacity="0.1" d="M0.278944 28.9522C-0.0736318 25.9401 -0.122607 22.9843 0.310078 20.3101C0.84212 17.0218 2.23117 13.3636 3.74867 10.092C6.71454 3.69799 12.0239 1.46106 18.489 0.452582C27.5008 -0.953153 39.9215 0.452613 40 11.3589C39.5479 15.2591 36.5646 26.1018 26.4939 26.9292C23.1642 27.2028 21.9185 30.5473 20.4515 34.3758C16.5911 44.4503 1.56969 39.9794 0.278944 28.9522Z" fill="#7FB51F"/>
<g clip-path="url(#clip1_211_4163)">
<path d="M22.9128 11.9695L24.5555 10.3682C24.6726 10.2543 24.7553 10.1099 24.7945 9.9513C24.8337 9.79274 24.8278 9.62637 24.7773 9.47103C24.7268 9.31568 24.6339 9.17756 24.509 9.0723C24.3841 8.96704 24.2323 8.89883 24.0706 8.8754L21.7998 8.54561L20.7847 6.48788C20.7041 6.35142 20.5893 6.23834 20.4517 6.15979C20.3141 6.08123 20.1583 6.03992 19.9998 6.03992C19.8414 6.03992 19.6856 6.08123 19.548 6.15979C19.4104 6.23834 19.2956 6.35142 19.215 6.48788L18.2 8.54553L15.9292 8.87531C15.7675 8.89874 15.6157 8.96695 15.4908 9.07221C15.3659 9.17748 15.273 9.31559 15.2225 9.47094C15.172 9.62628 15.1661 9.79265 15.2052 9.95121C15.2444 10.1098 15.3272 10.2542 15.4442 10.3682L17.087 11.9694L16.699 14.2312C16.6714 14.3921 16.6893 14.5576 16.7508 14.7089C16.8124 14.8602 16.915 14.9912 17.0471 15.0872C17.1792 15.1832 17.3356 15.2402 17.4985 15.252C17.6614 15.2637 17.8243 15.2297 17.9688 15.1536L19.9998 14.0856L22.031 15.1537C22.1755 15.2297 22.3384 15.2638 22.5013 15.2521C22.6642 15.2403 22.8205 15.1832 22.9527 15.0873C23.0848 14.9913 23.1874 14.8602 23.2489 14.709C23.3105 14.5577 23.3284 14.3922 23.3008 14.2313L22.9128 11.9695Z" fill="#7FB51F"/>
<path d="M33.9585 12.0577C33.908 11.9023 33.8151 11.7643 33.6902 11.659C33.5653 11.5538 33.4135 11.4855 33.2519 11.462L30.9814 11.1322L29.9655 9.07461C29.885 8.93808 29.7703 8.82492 29.6327 8.74631C29.495 8.66769 29.3393 8.62634 29.1808 8.62634C29.0223 8.62634 28.8666 8.66769 28.729 8.74631C28.5914 8.82492 28.4767 8.93808 28.3962 9.07461L27.3812 11.1322L25.1108 11.462C24.9492 11.4855 24.7974 11.5536 24.6725 11.6588C24.5477 11.7641 24.4547 11.9021 24.4042 12.0574C24.3537 12.2127 24.3477 12.379 24.3868 12.5375C24.4259 12.696 24.5085 12.8405 24.6254 12.9544L26.2686 14.5557L25.8806 16.8176C25.853 16.9785 25.8709 17.144 25.9323 17.2952C25.9938 17.4465 26.0964 17.5776 26.2284 17.6736C26.3605 17.7696 26.5168 17.8268 26.6797 17.8386C26.8425 17.8504 27.0054 17.8164 27.15 17.7404L29.1807 16.6729L31.2118 17.7404C31.3563 17.8165 31.5193 17.8505 31.6822 17.8388C31.845 17.8271 32.0014 17.77 32.1335 17.674C32.2656 17.578 32.3683 17.447 32.4298 17.2957C32.4913 17.1444 32.5093 16.979 32.4816 16.818L32.0937 14.5561L33.7366 12.9549C33.8536 12.841 33.9364 12.6965 33.9757 12.538C34.0149 12.3794 34.009 12.213 33.9585 12.0577Z" fill="#7FB51F"/>
<path d="M14.8906 11.4619L12.6202 11.132L11.6052 9.07445C11.533 8.92803 11.4212 8.80475 11.2825 8.71855C11.1439 8.63235 10.9838 8.58667 10.8206 8.58667C10.6573 8.58667 10.4973 8.63235 10.3586 8.71855C10.2199 8.80475 10.1082 8.92803 10.0359 9.07445L9.01986 11.132L6.74941 11.4619C6.58778 11.4853 6.43594 11.5535 6.31107 11.6588C6.18619 11.7641 6.09327 11.9022 6.04281 12.0575C5.99235 12.2128 5.98637 12.3792 6.02555 12.5377C6.06472 12.6963 6.14749 12.8407 6.26448 12.9546L7.90756 14.556L7.51958 16.8179C7.49195 16.9788 7.50991 17.1443 7.57143 17.2955C7.63295 17.4468 7.73558 17.5779 7.8677 17.6738C7.99983 17.7698 8.15617 17.8269 8.31906 17.8386C8.48194 17.8504 8.64486 17.8163 8.78938 17.7403L10.8205 16.6728L12.8512 17.7403C12.9957 17.8163 13.1587 17.8504 13.3215 17.8386C13.4844 17.8269 13.6408 17.7698 13.7729 17.6738C13.905 17.5779 14.0077 17.4468 14.0692 17.2955C14.1307 17.1443 14.1487 16.9788 14.121 16.8179L13.733 14.556L15.3762 12.9547C15.4931 12.8407 15.5758 12.6963 15.6149 12.5378C15.654 12.3792 15.6479 12.2129 15.5974 12.0577C15.5469 11.9024 15.454 11.7643 15.3291 11.6591C15.2042 11.5539 15.0522 11.4853 14.8906 11.4619Z" fill="#7FB51F"/>
<path d="M28.75 19.125H11.25C10.554 19.1258 9.88681 19.4026 9.39469 19.8947C8.90257 20.3868 8.62576 21.054 8.625 21.75V28.75C8.62576 29.446 8.90257 30.1132 9.39469 30.6053C9.88681 31.0974 10.554 31.3742 11.25 31.375H17.0127L19.3814 33.7436C19.4626 33.8249 19.559 33.8894 19.6652 33.9334C19.7713 33.9774 19.8851 34 20 34C20.1149 34 20.2287 33.9774 20.3348 33.9334C20.441 33.8894 20.5374 33.8249 20.6186 33.7436L22.9873 31.375H28.75C29.446 31.3742 30.1132 31.0974 30.6053 30.6053C31.0974 30.1132 31.3742 29.446 31.375 28.75V21.75C31.3742 21.054 31.0974 20.3868 30.6053 19.8947C30.1132 19.4026 29.446 19.1258 28.75 19.125ZM27 27.875H13C12.7679 27.875 12.5454 27.7828 12.3813 27.6187C12.2172 27.4546 12.125 27.2321 12.125 27C12.125 26.7679 12.2172 26.5454 12.3813 26.3813C12.5454 26.2172 12.7679 26.125 13 26.125H27C27.2321 26.125 27.4546 26.2172 27.6187 26.3813C27.7828 26.5454 27.875 26.7679 27.875 27C27.875 27.2321 27.7828 27.4546 27.6187 27.6187C27.4546 27.7828 27.2321 27.875 27 27.875ZM27 24.375H13C12.7679 24.375 12.5454 24.2828 12.3813 24.1187C12.2172 23.9546 12.125 23.7321 12.125 23.5C12.125 23.2679 12.2172 23.0454 12.3813 22.8813C12.5454 22.7172 12.7679 22.625 13 22.625H27C27.2321 22.625 27.4546 22.7172 27.6187 22.8813C27.7828 23.0454 27.875 23.2679 27.875 23.5C27.875 23.7321 27.7828 23.9546 27.6187 24.1187C27.4546 24.2828 27.2321 24.375 27 24.375Z" fill="#7FB51F"/>
</g>
</g>
<defs>
<clipPath id="clip0_211_4163">
<rect width="40" height="40" fill="white"/>
</clipPath>
<clipPath id="clip1_211_4163">
<rect width="28" height="28" fill="white" transform="translate(6 6)"/>
</clipPath>
</defs>
</svg>

<svg xmlns="http://www.w3.org/2000/svg" width="40" height="40" fill="none"><g fill="#7FB51F" clip-path="url(#a)"><path d="M.279 28.952c-.353-3.012-.402-5.968.031-8.642.532-3.288 1.921-6.946 3.439-10.218 2.966-6.394 8.275-8.63 14.74-9.64C27.501-.952 39.922.453 40 11.36c-.452 3.9-3.435 14.743-13.506 15.57-3.33.274-4.575 3.618-6.042 7.447C16.592 44.45 1.57 39.979.279 28.952" opacity=".1"/><g clip-path="url(#b)"><path d="m22.913 11.97 1.642-1.602a.874.874 0 0 0-.484-1.493l-2.271-.33-1.015-2.057a.912.912 0 0 0-1.57 0L18.2 8.546l-2.27.33a.875.875 0 0 0-.486 1.492l1.643 1.601-.388 2.262a.876.876 0 0 0 1.27.923l2.03-1.068 2.032 1.068a.876.876 0 0 0 1.27-.923zm11.046.088a.88.88 0 0 0-.707-.596l-2.27-.33-1.017-2.057a.91.91 0 0 0-1.569 0l-1.015 2.057-2.27.33a.876.876 0 0 0-.486 1.492l1.644 1.602-.388 2.262a.876.876 0 0 0 1.269.922l2.03-1.067 2.032 1.067a.875.875 0 0 0 1.27-.922l-.388-2.262 1.643-1.601a.88.88 0 0 0 .221-.897m-19.068-.596-2.27-.33-1.015-2.058a.874.874 0 0 0-1.57 0L9.02 11.132l-2.27.33a.874.874 0 0 0-.486 1.493l1.644 1.601-.388 2.262a.875.875 0 0 0 1.27.922l2.03-1.067 2.031 1.067a.875.875 0 0 0 1.27-.922l-.388-2.262 1.643-1.601a.875.875 0 0 0-.485-1.493m13.859 7.663h-17.5a2.63 2.63 0 0 0-2.625 2.625v7a2.63 2.63 0 0 0 2.625 2.625h5.763l2.368 2.369a.874.874 0 0 0 1.238 0l2.368-2.369h5.763a2.63 2.63 0 0 0 2.625-2.625v-7a2.63 2.63 0 0 0-2.625-2.625M27 27.875H13a.875.875 0 1 1 0-1.75h14a.875.875 0 1 1 0 1.75m0-3.5H13a.875.875 0 1 1 0-1.75h14a.875.875 0 1 1 0 1.75"/></g></g><defs><clipPath id="a"><path fill="#fff" d="M0 0h40v40H0z"/></clipPath><clipPath id="b"><path fill="#fff" d="M6 6h28v28H6z"/></clipPath></defs></svg>
